X: 15
T: Rock of Ages
P: piffero primo a0214
O: safd
%R: air
F: http://ancients.sudburymuster.org/mus/col/pdf/carolsF.pdf
Z: 2020 John Chambers <jc:trillian.mit.edu>
M: 3/4
L: 1/8
K: D
V: 1
V: 2
%%score (1 2)
% - - - - - - - - - -
V: 1 staves=2
A>B |\
A2 F2 d>B | A4 de | f3 edc | d4 c>d |\
e3 ecA | d4 c>d |
                  e3 ecA | d4 A>B |\
 A2 F2 d>B | A4 de | f3 edc | d4 :|
% - - - - - - - - - -
V: 2
F>G |\
F2 D2 A>G | F4 FG | A3 AAG | A4 A>A |\
c3 cAE | F4 G>A |
                  c3 cAE | F4 F>G |\
F2 D2 A>G | F4 FG | A3 AAG | A4 :|
%% - - - - - - - - - -


